X: 4
T:Tin Gee Gee. Webley Stick Dance
M:4/4
L:1/4
Q:100
K:D
ad d/2c/2d/2f/2|eBB2|ccBA|a2a/2g/2f/2g/2|ad d/2c/2d/2f/2|eBB2|Aage|d3||
c/2d/2|eeed/2e/2|fff2|gfed|a2a/2g/2f/2g/2|ad d/2c/2d/2f/2|eBB2|Aage|d4||
